X:1
T:The Way of the Cross Leads Home
T:The Way of the Cross Leads Home
T:Charles Hutchinson Gabriel
T:Jessie Brown Pounds, 1906
T:Public Domain Courtesy of the Cyber Hymnal™
T:Public Domain Courtesy of the Cyber Hymnal™
C:Charles Hutchinson Gabriel
Z:Public Domain
Z:Courtesy of the Cyber Hymnal™
%%score ( 1 2 ) ( 3 4 )
L:1/8
Q:1/4=105
M:4/4
K:Ab
V:1 treble 
V:2 treble 
V:3 bass 
V:4 bass 
V:1
 [CE]>[DF] | [CA]2 [DA]2 [CA]2 [DB]>[CA] | [Ec]2 [Ec]>[Fd] [Ec]3 [EB] | %3
w: 1.~I must|needs go home by the|way of the cross, There’s|
w: 2.~I must|needs go on in the|blood sprink- led way, The|
w: 3.~Then I|bid fare- well to the|way of the world, To|
 [FA]2 [=EG]>[FA] [Fd]2 [DF]2 | [CE]6 [CA]>[CB] | [DA]2 [DG]2 [DB]2 [DB]>[Ec] | %6
w: no o- ther way but|this; I shall|ne’er get sight of the|
w: path that the Sav- ior|trod, If I|e- ver climb to the|
w: walk in it ne- ver|more; For the|Lord says, “Come,” and I|
 [DB]2 [CA]2 [Ec]2 [Ec]>[Ec] | [EB]2 [Ee][Ee] [EG]2 [=DF]2 | E6 x2 ||"^Refrain" [DE]2 | %10
w: gates of light, If the|way of the cross I|miss.||
w: heights sub- lime, Where the|soul is at home with|God.|The|
w: seek my home, Where He|waits at the o- pen|door.||
 [CEc]2 [Ec]>[Ec] [Ec]2 [Fd]2 | c6 ([CA][Ec]) | [Ae]2 [Ae]>[Ae] [Ae]2 [Af]2 | e6 [Ec][Ec] | %14
w: ||||
w: way of the cross leads|home, The *|way of the cross leads|home, It is|
w: ||||
 [Ed]2 [Ed]2 [Ed]2 [EB][EB] | [Ec]2 [Ed]2 !fermata![Ae]2 !fermata![Af]2 | %16
w: ||
w: sweet to know as I|on- ward go, The|
w: ||
 [Ae]2 [Fe]>[Fd] [Ec]2 [EB]2 | [EA]6 |] %18
w: ||
w: way of the cross leads|home.|
w: ||
V:2
 x2 | x8 | x8 | x8 | x8 | x8 | x8 | x8 | E6 x2 || x2 | x8 | (E2 E2 E2) x2 | x8 | (A2 A2 A2) x2 | %14
 x8 | x8 | x8 | x6 |] %18
V:3
 [A,,A,]>[A,,A,] | [A,,E,]2 [A,,F,]2 [A,,E,]2 [A,,E,]>[A,,E,] | %2
 [A,,A,]2 [A,,A,]>[A,,A,] [A,,A,]3 [C,A,] | [D,D]2 [D,D]>[D,D] [D,A,]2 [D,A,]2 | %4
 [A,,A,]6 [A,,E,]>[A,,E,] | [B,,E,]2 [B,,E,]2 [E,G,]2 [E,G,]>[E,G,] | A,2 A,2 A,2 [A,,A,]>[A,,A,] | %7
 [B,,G,]2 [B,,G,][B,,G,] [B,,B,]2 [B,,A,]2 | G,4 (D,2 [C,A,]2) || [B,,G,]2 | %10
 [A,,A,]2 [A,,A,]>[A,,A,] [A,,A,]2 [A,,A,]2 | ([A,,A,]2 A,2) A,2 x2 | %12
 [A,C]2 [A,C]>[A,C] [A,C]2 [A,D]2 | ([A,C]2 [A,C]2 [A,C]2) A,A, | %14
 [E,B,]2 [E,B,]2 [E,B,]2 [E,G,][E,G,] | [A,,A,]2 [B,,G,]2 !fermata![C,A,]2 !fermata![D,A,]2 | %16
 [C,A,]2 [D,A,]>[D,A,] [E,A,]2 [E,D]2 | [A,,C]6 |] %18
V:4
 x2 | x8 | x8 | x8 | x8 | x8 | A,2 A,2 A,2 x2 | x8 | E,2 x6 || x2 | x8 | x2 (C,E, A,2) x2 | x8 | %13
 x6 A,A, | x8 | x8 | x8 | x6 |] %18

